images/icon/icon_photo.svg

<?xml version="1.0" encoding="utf-8"?>
<!-- Generator: Adobe Illustrator 16.0.0, SVG Export Plug-In . SVG Version: 6.00 Build 0)  -->
<!DOCTYPE svg PUBLIC "-//W3C//DTD SVG 1.1//EN" "http://www.w3.org/Graphics/SVG/1.1/DTD/svg11.dtd">
<svg version="1.1" id="圖層_1" xmlns="http://www.w3.org/2000/svg" xmlns:xlink="http://www.w3.org/1999/xlink" x="0px" y="0px"
	 width="28.35px" height="28.35px" viewBox="0 0 28.35 28.35" enable-background="new 0 0 28.35 28.35" xml:space="preserve">
<g id="Livello_1_1_">
</g>
<path fill-rule="evenodd" clip-rule="evenodd" d="M2.951,3.149H25.4c0.881,0,1.603,0.722,1.603,1.604v19.243
	c0,0.881-0.722,1.602-1.603,1.602H2.951c-0.881,0-1.604-0.721-1.604-1.602V4.753C1.348,3.871,2.07,3.149,2.951,3.149L2.951,3.149z
	 M22.994,12.77l-3.206-3.207l-8.018,8.017l-4.008-4.006l-2.405,2.405v5.611h17.637V12.77L22.994,12.77z M3.754,5.554v17.638h20.845
	V5.554H3.754z"/>
</svg>

<svg id="圖層_1" data-name="圖層 1" xmlns="http://www.w3.org/2000/svg" viewBox="0 0 25.66 22.45"><defs><style>.cls-1{fill:#fff;fill-rule:evenodd;}</style></defs><path class="cls-1" d="M3,3.15H25.4A1.6,1.6,0,0,1,27,4.75V24a1.6,1.6,0,0,1-1.6,1.6H3A1.6,1.6,0,0,1,1.35,24V4.75A1.6,1.6,0,0,1,3,3.15Zm20,9.62-3.2-3.21-8,8-4-4L5.36,16v5.61H23V12.77ZM3.75,5.55V23.19H24.6V5.55Z" transform="translate(-1.35 -3.15)"/></svg>
